docs/img/svg/plus.svg

<svg xmlns="http://www.w3.org/2000/svg" preserveAspectRatio="xMidYMid" width="21" height="21" viewBox="0 0 21 21"><defs><style>.cls-1{fill:#fff;fill-rule:evenodd}</style></defs><path d="M10.5.002C4.701.002.002 4.701.002 10.5c0 5.798 4.699 10.498 10.498 10.498 5.798 0 10.498-4.701 10.498-10.498 0-5.798-4.7-10.498-10.498-10.498zm0 19.683a9.186 9.186 0 0 1 0-18.371 9.186 9.186 0 0 1 0 18.371zm3.936-9.842h-3.28v-3.28a.656.656 0 0 0-1.312 0v3.28H6.563a.657.657 0 0 0 0 1.313h3.281v3.28a.656.656 0 1 0 1.312 0v-3.28h3.28a.656.656 0 1 0 0-1.313z" class="cls-1"/></svg>

<svg xmlns="http://www.w3.org/2000/svg" xmlns:xlink="http://www.w3.org/1999/xlink" preserveAspectRatio="xMidYMid" width="21" height="21" viewBox="0 0 21 21">
  <defs>
    <style>
      .cls-1 {
        fill: #fff;
        fill-rule: evenodd;
      }
    </style>
  </defs>
  <path d="M10.500,0.002 C4.701,0.002 0.002,4.701 0.002,10.500 C0.002,16.298 4.701,20.998 10.500,20.998 C16.298,20.998 20.998,16.297 20.998,10.500 C20.998,4.702 16.298,0.002 10.500,0.002 ZM10.500,19.685 C5.426,19.685 1.314,15.573 1.314,10.500 C1.314,5.427 5.426,1.314 10.500,1.314 C15.573,1.314 19.686,5.427 19.686,10.500 C19.686,15.573 15.573,19.685 10.500,19.685 ZM14.436,9.843 L11.156,9.843 L11.156,6.563 C11.156,6.201 10.862,5.907 10.500,5.907 C10.137,5.907 9.844,6.201 9.844,6.563 L9.844,9.843 L6.563,9.843 C6.201,9.843 5.907,10.138 5.907,10.500 C5.907,10.862 6.201,11.156 6.563,11.156 L9.844,11.156 L9.844,14.436 C9.844,14.799 10.137,15.093 10.500,15.093 C10.862,15.093 11.156,14.799 11.156,14.436 L11.156,11.156 L14.436,11.156 C14.799,11.156 15.092,10.862 15.092,10.500 C15.092,10.138 14.799,9.843 14.436,9.843 Z" class="cls-1"/>
</svg>
